X:481
T: Fanghua ge
N: C1900
O: China,Shanxi Jiaocheng
S: I, 307]
R: Xiaodiao]
M: 2/4
L: 1/16
K: A
c4c2e2 | c2B2A4 | c4c2B2 | c2A2B4 |
c3Bc2B2 | F2B2A4 | F3BG2F2 | E2C2E4 |
F4B4 | F3BG2F2 | E2C2E4

@@@ Tune index: 7036
